X:30
T:Joe Tom's
Z:Gwen 2022-01-24 d'après la leçon de Benoît Volant: https://www.youtube.com/watch?v=su4pfnFHMIg
M:2/2
R:Reel
K:Edor
|: E2BE cEBE | E2DB, A,B,DF | DEBE cEBE | d2AG FEDF |
   E2BE cEBE | E2DB, A,B,DF | EFGA Bcde |1 f2ed cAFD :|2 f2ed cAdc |
|: B3e fBB2 | cBAF Bcde | fbbb faaf | g2fd efga |
   bfff afff | g2fd edcA | B2Bc dcde |1 f2ed cAdc :|2 f2ed cAFD ||

